src/assets/hero/yourlogo.svg

<svg width="134" height="28" viewBox="0 0 134 28" fill="none" xmlns="http://www.w3.org/2000/svg">
<g clip-path="url(#clip0_569_29016)">
<circle cx="14.5996" cy="14" r="12.32" stroke="white" stroke-width="3.36"/>
<mask id="mask0_569_29016" style="mask-type:alpha" maskUnits="userSpaceOnUse" x="0" y="0" width="29" height="28">
<circle cx="14.5996" cy="14" r="14" fill="black"/>
</mask>
<g mask="url(#mask0_569_29016)">
<circle cx="9.86386" cy="8.23495" r="10.4671" stroke="white" stroke-width="3.36"/>
</g>
</g>
<path d="M42.7855 24.2532V21.5876H45.0199C45.3596 21.5876 45.6471 21.5419 45.8823 21.4504C46.1175 21.372 46.3069 21.2348 46.4507 21.0388C46.5944 20.8428 46.712 20.5749 46.8035 20.2352L49.4495 9.2592H52.4287L49.4299 20.8624C49.2208 21.6987 48.9268 22.3651 48.5479 22.8616C48.182 23.3581 47.6855 23.7109 47.0583 23.92C46.4441 24.1421 45.6601 24.2532 44.7063 24.2532H42.7855ZM46.1567 19.7648V17.3148H48.4303V19.7648H46.1567ZM44.8631 19.7648L41.5703 9.2592H44.7259L47.8423 19.7648H44.8631ZM59.0656 20.3724C58.1248 20.3724 57.2885 20.2287 56.5568 19.9412C55.825 19.6407 55.2044 19.2356 54.6948 18.726C54.1982 18.2164 53.8193 17.6349 53.558 16.9816C53.2966 16.3152 53.166 15.6161 53.166 14.8844V14.4336C53.166 13.6888 53.2966 12.9832 53.558 12.3168C53.8324 11.6373 54.2244 11.0428 54.734 10.5332C55.2566 10.0236 55.8838 9.62507 56.6156 9.3376C57.3473 9.03707 58.164 8.8868 59.0656 8.8868C59.9933 8.8868 60.8165 9.03707 61.5352 9.3376C62.2669 9.62507 62.8876 10.0236 63.3972 10.5332C63.9068 11.0428 64.2988 11.6373 64.5732 12.3168C64.8476 12.9832 64.9848 13.6888 64.9848 14.4336V14.8844C64.9848 15.6161 64.8541 16.3152 64.5928 16.9816C64.3314 17.6349 63.946 18.2164 63.4364 18.726C62.9398 19.2356 62.3257 19.6407 61.594 19.9412C60.8622 20.2287 60.0194 20.3724 59.0656 20.3724ZM59.0656 17.7264C59.6797 17.7264 60.1893 17.5957 60.5944 17.3344C60.9994 17.0731 61.3065 16.7072 61.5156 16.2368C61.7377 15.7664 61.8488 15.2437 61.8488 14.6688C61.8488 14.0547 61.7377 13.5189 61.5156 13.0616C61.2934 12.5912 60.9733 12.2188 60.5552 11.9444C60.1501 11.67 59.6536 11.5328 59.0656 11.5328C58.4906 11.5328 57.9941 11.67 57.576 11.9444C57.1578 12.2188 56.8377 12.5912 56.6156 13.0616C56.4065 13.5189 56.302 14.0547 56.302 14.6688C56.302 15.2437 56.4065 15.7664 56.6156 16.2368C56.8246 16.7072 57.1382 17.0731 57.5564 17.3344C57.9745 17.5957 58.4776 17.7264 59.0656 17.7264ZM70.7994 20.3332C69.558 20.3332 68.6042 19.9347 67.9378 19.1376C67.2714 18.3275 66.9382 17.1123 66.9382 15.492V9.2592H70.0742V15.6488C70.0742 16.2237 70.2375 16.6811 70.5642 17.0208C70.8908 17.3605 71.3286 17.5304 71.8774 17.5304C72.4392 17.5304 72.8966 17.354 73.2494 17.0012C73.6022 16.6484 73.7786 16.1715 73.7786 15.5704V9.2592H76.9146V20H74.4254V15.4724H74.641C74.641 16.5569 74.4972 17.4651 74.2098 18.1968C73.9354 18.9155 73.5238 19.4512 72.975 19.804C72.4262 20.1568 71.7467 20.3332 70.9366 20.3332H70.7994ZM79.8062 20V9.2592H82.2954V13.8652H82.2366C82.2366 12.3495 82.5567 11.18 83.197 10.3568C83.8503 9.5336 84.7911 9.122 86.0194 9.122H86.431V11.8268H85.647C84.7846 11.8268 84.1182 12.062 83.6478 12.5324C83.1774 12.9897 82.9422 13.6561 82.9422 14.5316V20H79.8062ZM88.193 20V5.692H91.3486V20H88.193ZM86.919 8.0048V5.692H91.3486V8.0048H86.919ZM99.4714 20.3724C98.5306 20.3724 97.6944 20.2287 96.9626 19.9412C96.2309 19.6407 95.6102 19.2356 95.1006 18.726C94.6041 18.2164 94.2252 17.6349 93.9638 16.9816C93.7025 16.3152 93.5718 15.6161 93.5718 14.8844V14.4336C93.5718 13.6888 93.7025 12.9832 93.9638 12.3168C94.2382 11.6373 94.6302 11.0428 95.1398 10.5332C95.6625 10.0236 96.2897 9.62507 97.0214 9.3376C97.7532 9.03707 98.5698 8.8868 99.4714 8.8868C100.399 8.8868 101.222 9.03707 101.941 9.3376C102.673 9.62507 103.293 10.0236 103.803 10.5332C104.313 11.0428 104.705 11.6373 104.979 12.3168C105.253 12.9832 105.391 13.6888 105.391 14.4336V14.8844C105.391 15.6161 105.26 16.3152 104.999 16.9816C104.737 17.6349 104.352 18.2164 103.842 18.726C103.346 19.2356 102.732 19.6407 102 19.9412C101.268 20.2287 100.425 20.3724 99.4714 20.3724ZM99.4714 17.7264C100.086 17.7264 100.595 17.5957 101 17.3344C101.405 17.0731 101.712 16.7072 101.921 16.2368C102.144 15.7664 102.255 15.2437 102.255 14.6688C102.255 14.0547 102.144 13.5189 101.921 13.0616C101.699 12.5912 101.379 12.2188 100.961 11.9444C100.556 11.67 100.059 11.5328 99.4714 11.5328C98.8965 11.5328 98.4 11.67 97.9818 11.9444C97.5637 12.2188 97.2436 12.5912 97.0214 13.0616C96.8124 13.5189 96.7078 14.0547 96.7078 14.6688C96.7078 15.2437 96.8124 15.7664 97.0214 16.2368C97.2305 16.7072 97.5441 17.0731 97.9622 17.3344C98.3804 17.5957 98.8834 17.7264 99.4714 17.7264ZM111.813 24.2728C111.29 24.2728 110.754 24.2532 110.206 24.214C109.657 24.1748 109.154 24.1225 108.696 24.0572V21.4112C109.154 21.4765 109.657 21.5288 110.206 21.568C110.768 21.6203 111.277 21.6464 111.734 21.6464C112.584 21.6464 113.27 21.5484 113.792 21.3524C114.328 21.1564 114.72 20.8559 114.968 20.4508C115.217 20.0588 115.341 19.5492 115.341 18.922V16.7856L115.909 15.5312C115.883 16.4851 115.694 17.3017 115.341 17.9812C115.001 18.6607 114.524 19.1833 113.91 19.5492C113.296 19.902 112.564 20.0784 111.715 20.0784C110.983 20.0784 110.317 19.9477 109.716 19.6864C109.128 19.412 108.625 19.0331 108.206 18.5496C107.788 18.0661 107.468 17.5043 107.246 16.864C107.024 16.2107 106.913 15.5051 106.913 14.7472V14.2964C106.913 13.5385 107.03 12.8329 107.266 12.1796C107.501 11.5263 107.841 10.9579 108.285 10.4744C108.729 9.99093 109.258 9.61853 109.872 9.3572C110.487 9.0828 111.166 8.9456 111.911 8.9456C112.773 8.9456 113.518 9.13507 114.145 9.514C114.786 9.89293 115.289 10.4483 115.654 11.18C116.02 11.9117 116.216 12.7937 116.242 13.826L115.811 13.9436V9.2592H118.3V18.726C118.3 20.0457 118.065 21.1107 117.595 21.9208C117.124 22.7309 116.406 23.3255 115.439 23.7044C114.485 24.0833 113.276 24.2728 111.813 24.2728ZM112.695 17.4324C113.178 17.4324 113.616 17.3279 114.008 17.1188C114.4 16.8967 114.707 16.5831 114.929 16.178C115.164 15.7729 115.282 15.2829 115.282 14.708V14.1396C115.282 13.5777 115.158 13.1073 114.91 12.7284C114.674 12.3364 114.361 12.0424 113.969 11.8464C113.577 11.6373 113.159 11.5328 112.714 11.5328C112.192 11.5328 111.728 11.6569 111.323 11.9052C110.918 12.1535 110.604 12.4997 110.382 12.944C110.16 13.3883 110.049 13.9109 110.049 14.512C110.049 15.1261 110.16 15.6553 110.382 16.0996C110.617 16.5308 110.931 16.864 111.323 17.0992C111.728 17.3213 112.185 17.4324 112.695 17.4324ZM126.249 20.3724C125.308 20.3724 124.472 20.2287 123.74 19.9412C123.009 19.6407 122.388 19.2356 121.878 18.726C121.382 18.2164 121.003 17.6349 120.742 16.9816C120.48 16.3152 120.35 15.6161 120.35 14.8844V14.4336C120.35 13.6888 120.48 12.9832 120.742 12.3168C121.016 11.6373 121.408 11.0428 121.918 10.5332C122.44 10.0236 123.067 9.62507 123.799 9.3376C124.531 9.03707 125.348 8.8868 126.249 8.8868C127.177 8.8868 128 9.03707 128.719 9.3376C129.45 9.62507 130.071 10.0236 130.581 10.5332C131.09 11.0428 131.482 11.6373 131.757 12.3168C132.031 12.9832 132.168 13.6888 132.168 14.4336V14.8844C132.168 15.6161 132.038 16.3152 131.776 16.9816C131.515 17.6349 131.13 18.2164 130.62 18.726C130.123 19.2356 129.509 19.6407 128.778 19.9412C128.046 20.2287 127.203 20.3724 126.249 20.3724ZM126.249 17.7264C126.863 17.7264 127.373 17.5957 127.778 17.3344C128.183 17.0731 128.49 16.7072 128.699 16.2368C128.921 15.7664 129.032 15.2437 129.032 14.6688C129.032 14.0547 128.921 13.5189 128.699 13.0616C128.477 12.5912 128.157 12.2188 127.739 11.9444C127.334 11.67 126.837 11.5328 126.249 11.5328C125.674 11.5328 125.178 11.67 124.76 11.9444C124.341 12.2188 124.021 12.5912 123.799 13.0616C123.59 13.5189 123.486 14.0547 123.486 14.6688C123.486 15.2437 123.59 15.7664 123.799 16.2368C124.008 16.7072 124.322 17.0731 124.74 17.3344C125.158 17.5957 125.661 17.7264 126.249 17.7264Z" fill="white"/>
<defs>
<clipPath id="clip0_569_29016">
<rect width="28" height="28" fill="white" transform="translate(0.599609)"/>
</clipPath>
</defs>
</svg>

<svg width="134" height="28" fill="none" xmlns="http://www.w3.org/2000/svg"><g clip-path="url(#a)"><circle cx="14.6" cy="14" r="12.32" stroke="#fff" stroke-width="3.36"/><mask id="b" style="mask-type:alpha" maskUnits="userSpaceOnUse" x="0" y="0" width="29" height="28"><circle cx="14.6" cy="14" r="14" fill="#000"/></mask><g mask="url(#b)"><circle cx="9.864" cy="8.235" r="10.467" stroke="#fff" stroke-width="3.36"/></g></g><path d="M42.785 24.253v-2.665h2.235c.34 0 .627-.046.862-.138a1.13 1.13 0 0 0 .569-.411c.143-.196.261-.464.352-.804L49.45 9.26h2.979l-3 11.603c-.208.837-.502 1.503-.881 2-.366.496-.863.849-1.49 1.058-.614.222-1.398.333-2.352.333h-1.92Zm3.372-4.488v-2.45h2.273v2.45h-2.273Zm-1.294 0L41.57 9.259h3.156l3.116 10.506h-2.979Zm14.203.607c-.941 0-1.778-.143-2.51-.43a5.61 5.61 0 0 1-1.861-1.216 5.295 5.295 0 0 1-1.137-1.744 5.692 5.692 0 0 1-.392-2.098v-.45c0-.745.13-1.45.392-2.117a5.303 5.303 0 0 1 1.176-1.784 5.582 5.582 0 0 1 1.882-1.195c.731-.3 1.548-.451 2.45-.451.927 0 1.75.15 2.47.45a5.373 5.373 0 0 1 1.861 1.196c.51.51.902 1.104 1.176 1.784.275.666.412 1.372.412 2.117v.45c0 .732-.13 1.431-.392 2.098a5.154 5.154 0 0 1-1.157 1.744c-.496.51-1.11.915-1.842 1.215-.732.288-1.575.431-2.528.431Zm0-2.646c.614 0 1.123-.13 1.528-.392.405-.26.712-.627.922-1.097.222-.47.333-.993.333-1.568 0-.614-.111-1.15-.333-1.607a2.67 2.67 0 0 0-.96-1.118c-.406-.274-.902-.411-1.49-.411-.575 0-1.072.137-1.49.411a2.668 2.668 0 0 0-.96 1.118c-.21.457-.314.993-.314 1.607 0 .575.105 1.097.314 1.568.209.47.522.836.94 1.097.419.262.922.392 1.51.392Zm11.733 2.607c-1.241 0-2.195-.398-2.861-1.195-.667-.81-1-2.026-1-3.646V9.259h3.136v6.39c0 .575.163 1.032.49 1.372.327.34.765.51 1.313.51.562 0 1.02-.177 1.372-.53.353-.353.53-.83.53-1.43V9.258h3.136V20h-2.49v-4.528h.216c0 1.085-.144 1.993-.431 2.725-.275.719-.686 1.254-1.235 1.607s-1.228.53-2.038.53h-.138ZM79.806 20V9.26h2.49v4.605h-.06c0-1.515.32-2.685.961-3.508.653-.823 1.594-1.235 2.822-1.235h.412v2.705h-.784c-.862 0-1.529.235-2 .705-.47.458-.705 1.124-.705 2V20h-3.136Zm8.387 0V5.692h3.156V20h-3.156ZM86.919 8.005V5.692h4.43v2.313h-4.43Zm12.552 12.367c-.94 0-1.777-.143-2.508-.43a5.61 5.61 0 0 1-1.862-1.216 5.298 5.298 0 0 1-1.137-1.744 5.694 5.694 0 0 1-.392-2.098v-.45c0-.745.13-1.45.392-2.117a5.303 5.303 0 0 1 1.176-1.784 5.584 5.584 0 0 1 1.881-1.195c.732-.3 1.549-.451 2.45-.451.928 0 1.751.15 2.47.45a5.374 5.374 0 0 1 1.862 1.196 5.29 5.29 0 0 1 1.176 1.784c.274.666.412 1.372.412 2.117v.45a5.7 5.7 0 0 1-.392 2.098 5.158 5.158 0 0 1-1.157 1.744c-.496.51-1.11.915-1.842 1.215-.732.288-1.575.431-2.529.431Zm0-2.646c.615 0 1.124-.13 1.529-.392.405-.26.712-.627.921-1.097.223-.47.334-.993.334-1.568 0-.614-.111-1.15-.334-1.607a2.668 2.668 0 0 0-.96-1.118c-.405-.274-.902-.411-1.49-.411-.575 0-1.071.137-1.49.411a2.67 2.67 0 0 0-.96 1.118c-.209.457-.313.993-.313 1.607 0 .575.104 1.097.313 1.568.21.47.523.836.941 1.097.418.262.921.392 1.51.392Zm12.342 6.547c-.523 0-1.059-.02-1.607-.059a21.692 21.692 0 0 1-1.51-.157v-2.646c.458.066.961.118 1.51.157.562.052 1.071.078 1.528.078.85 0 1.536-.098 2.058-.294.536-.196.928-.496 1.176-.901.249-.392.373-.902.373-1.529v-2.136l.568-1.255c-.026.954-.215 1.77-.568 2.45-.34.68-.817 1.202-1.431 1.568-.614.353-1.346.53-2.195.53a4.96 4.96 0 0 1-1.999-.393 4.482 4.482 0 0 1-1.51-1.136 5.105 5.105 0 0 1-.96-1.686 6.538 6.538 0 0 1-.333-2.117v-.45c0-.758.117-1.464.353-2.117a4.984 4.984 0 0 1 1.019-1.706 4.544 4.544 0 0 1 1.587-1.117 4.946 4.946 0 0 1 2.039-.411c.862 0 1.607.19 2.234.568.641.379 1.144.934 1.509 1.666.366.732.562 1.614.588 2.646l-.431.118V9.259h2.489v9.467c0 1.32-.235 2.385-.705 3.195-.471.81-1.189 1.405-2.156 1.783-.954.38-2.163.569-3.626.569Zm.882-6.84c.483 0 .921-.105 1.313-.314.392-.222.699-.536.921-.941.235-.405.353-.895.353-1.47v-.568c0-.562-.124-1.033-.372-1.412a2.267 2.267 0 0 0-.941-.882 2.626 2.626 0 0 0-1.255-.313c-.522 0-.986.124-1.391.372a2.5 2.5 0 0 0-.941 1.039c-.222.444-.333.967-.333 1.568 0 .614.111 1.143.333 1.588.235.43.549.764.941 1 .405.221.862.332 1.372.332Zm13.554 2.94c-.941 0-1.777-.144-2.509-.432a5.622 5.622 0 0 1-1.862-1.215 5.298 5.298 0 0 1-1.136-1.744 5.68 5.68 0 0 1-.392-2.098v-.45c0-.745.13-1.45.392-2.117a5.29 5.29 0 0 1 1.176-1.784 5.572 5.572 0 0 1 1.881-1.195c.732-.3 1.549-.451 2.45-.451.928 0 1.751.15 2.47.45a5.383 5.383 0 0 1 1.862 1.196 5.32 5.32 0 0 1 1.176 1.784c.274.666.411 1.372.411 2.117v.45c0 .732-.13 1.431-.392 2.098a5.14 5.14 0 0 1-1.156 1.744c-.497.51-1.111.915-1.842 1.215-.732.288-1.575.431-2.529.431Zm0-2.647c.614 0 1.124-.13 1.529-.392.405-.26.712-.627.921-1.097.222-.47.333-.993.333-1.568 0-.614-.111-1.15-.333-1.607a2.668 2.668 0 0 0-.96-1.118c-.405-.274-.902-.411-1.49-.411-.575 0-1.071.137-1.489.411a2.663 2.663 0 0 0-.961 1.118c-.209.457-.313.993-.313 1.607 0 .575.104 1.097.313 1.568.209.47.523.836.941 1.097.418.262.921.392 1.509.392Z" fill="#fff"/><defs><clipPath id="a"><path fill="#fff" transform="translate(.6)" d="M0 0h28v28H0z"/></clipPath></defs></svg>
